Origami/64x64/apps/marknoto.svg

<svg width="64" height="64" version="1" xmlns="http://www.w3.org/2000/svg">
 <defs>
  <clipPath id="clipPath4483">
   <path d="m91.5 254c-0.831 0-1.5 0.669-1.5 1.5v25c0 0.831 0.669 1.5 1.5 1.5h16.5l10-10v-16.5c0-0.831-0.669-1.5-1.5-1.5z" style="fill:#fecd38"/>
  </clipPath>
 </defs>
 <path d="m60 39-20 20h-33c-1.662 0-3-1.338-3-3v2c0 1.662 1.338 3 3 3h33l20-20v-2z" style="opacity:.2"/>
 <path d="m8 4s-4 0-4 4v48c0 4 4 4 4 4h32l20-20v-32c0-4-4-4-4-4z" style="fill:#fecd38"/>
 <path transform="matrix(2,0,0,2,-176,-504)" d="m118 272h-8.5c-0.82843 0-1.5 0.67158-1.5 1.5v8.5z" clip-path="url(#clipPath4483)" style="opacity:.2"/>
 <path d="m60 40h-17c-1.656 0-3 1.344-3 3v17z" style="fill:#ffe69b"/>
 <path d="m43 40c-1.656 0-3 1.344-3 3v1c0-1.656 1.344-3 3-3h16l1-1h-17z" style="fill:#ffffff;opacity:.1"/>
 <path d="m8 4c-1.662 0-4 2.338-4 4v1c0-1.662 2.338-4 4-4h48c1.662 0 4 2.338 4 4v-1c0-1.662-2.338-4-4-4h-48z" style="fill:#ffffff;opacity:.1"/>
 <path d="m32.176 19.904-5.176 19.318 2.898 0.778 5.176-19.318-2.898-0.778zm3.824 0.096v4l5 5-5 5v4l10-9-10-9zm-10 2-10 9 10 9v-4l-5-5 5-5v-4z" style="opacity:.5"/>
</svg>

<svg xmlns="http://www.w3.org/2000/svg" width="64" height="64" version="1">
 <defs>
  <clipPath id="clipPath4483" clipPathUnits="userSpaceOnUse">
   <path style="fill:#fecd38" d="m 91.5,254 c -0.831,0 -1.5,0.669 -1.5,1.5 l 0,25 c 0,0.831 0.669,1.5 1.5,1.5 l 16.5,0 10,-10 0,-16.5 c 0,-0.831 -0.669,-1.5 -1.5,-1.5 z"/>
  </clipPath>
 </defs>
 <path style="opacity:0.2" d="M 60,39 40,59 7,59 C 5.338,59 4,57.662 4,56 l 0,2 c 0,1.662 1.338,3 3,3 l 33,0 20,-20 0,-2 z"/>
 <path style="fill:#fecd38" d="M 8,4 C 8,4 4,4 4,8 l 0,48 c 0,4 4,4 4,4 L 40,60 60,40 60,8 C 60,4 56,4 56,4 Z"/>
 <path style="opacity:0.2" d="m 118,272 -8.5,0 c -0.82843,0 -1.5,0.67158 -1.5,1.5 l 0,8.5 z" clip-path="url(#clipPath4483)" transform="matrix(2,0,0,2,-176,-504)"/>
 <path style="fill:#ffe69b" d="m 60,40 -17,0 c -1.656,0 -3,1.344 -3,3 l 0,17 z"/>
 <path style="opacity:0.1;fill:#ffffff" d="M 43 40 C 41.344 40 40 41.344 40 43 L 40 44 C 40 42.344 41.344 41 43 41 L 59 41 L 60 40 L 43 40 z"/>
 <path style="opacity:0.1;fill:#ffffff" d="M 8 4 C 6.338 4 4 6.338 4 8 L 4 9 C 4 7.338 6.338 5 8 5 L 56 5 C 57.662 5 60 7.338 60 9 L 60 8 C 60 6.338 57.662 4 56 4 L 8 4 z"/>
 <path style="opacity:0.5" d="M 32.176,19.904 27,39.222 29.898,40 35.074,20.682 32.176,19.904 Z M 36,20 l 0,4 5,5 -5,5 0,4 10,-9 -10,-9 z m -10,2 -10,9 10,9 0,-4 -5,-5 5,-5 0,-4 z"/>
</svg>
